X: 1
T: Elie's Waltz
C: Chirps Smith
D: Down in Little Egypt, Vigortone 2003
R: waltz
Z: 2020 John Chambers <jc:trillian.mit.edu>
S: https://www.facebook.com/groups/Fiddletuneoftheday/
S: https://www.facebook.com/photo.php?fbid=1525960437554931
N: Stretch bar 7 to get a regular 32/64-bar tune.
M: 3/4
L: 1/8
K: G
Ac |\
{c}B2 G2 AB | {B}c2 A2 Bc | [d3D3] g g2 | g4 eg |\
f2 A2 B2 | c2 A2 B2 | [B4D4] Bc ||
{c}B2 G2 AB | {B}c2 A2 Bc | [d3D3] g g2 | g4 eg |\
f2 A2 B2 | c2 A2 d2 | g3 g g2 | g4 :|
|: ga |\
g2 G2 ga | g2G2 (3BcB | A2 B2 c2 | e4 ee |\
f2 e2 d2 | c2 B2 c2 | d3 e d2 | B4 ga ||
g2 G2 ga | g2G2 (3BcB | A2 B2 c2 | e4 ee |\
f2 e2 d2 | c2 A2 F2 | G3 F GA | G4 :|

